X:10716
T:Merry Harriers, The
R:reel
Z:id:hn-reel-609
M:C|
K:Ador
eA~A2 egfg|eA~A2 BGBd|eA~A2 eg~g2|1 afge dgfg:|2 afge d2Bc||
|:dg~g2 bg~g2|dg~g2 dGBc|dggf gabg|1 abge d2Bc:|2 abge dgfg||
